resources/svg/chat-smile-3-line.svg

<svg fill="currentColor" viewBox="0 0 24 24" xmlns="http://www.w3.org/2000/svg"><path d="M2 12C2 6.47715 6.47715 2 12 2C17.5228 2 22 6.47715 22 12C22 17.5228 17.5228 22 12 22H2L4.92893 19.0711C3.11929 17.2614 2 14.7614 2 12ZM6.82843 20H12C16.4183 20 20 16.4183 20 12C20 7.58172 16.4183 4 12 4C7.58172 4 4 7.58172 4 12C4 14.1524 4.85124 16.1649 6.34315 17.6569L7.75736 19.0711L6.82843 20ZM8 13H16C16 15.2091 14.2091 17 12 17C9.79086 17 8 15.2091 8 13Z"/></svg>

<svg xmlns="http://www.w3.org/2000/svg" viewBox="0 0 24 24" fill="currentColor">
    <g>
        <path fill="none" d="M0 0h24v24H0z"/>
        <path d="M2 12C2 6.477 6.477 2 12 2s10 4.477 10 10-4.477 10-10 10H2l2.929-2.929A9.969 9.969 0 0 1 2 12zm4.828 8H12a8 8 0 1 0-8-8c0 2.152.851 4.165 2.343 5.657l1.414 1.414-.929.929zM8 13h8a4 4 0 1 1-8 0z"/>
    </g>
</svg>
